assets/icons/functional/design/square-half.svg

<svg width="32" height="32" viewBox="0 0 32 32" fill="none" xmlns="http://www.w3.org/2000/svg"><g id="Icon-SquareHalf"><g clip-path="url(#clip0_8_157)"><g id="size=md (32px)"><g id="SquareHalf"><path id="Vector" d="M25.5 5.5H6.5C5.94772 5.5 5.5 5.94772 5.5 6.5V25.5C5.5 26.0523 5.94772 26.5 6.5 26.5H25.5C26.0523 26.5 26.5 26.0523 26.5 25.5V6.5C26.5 5.94772 26.0523 5.5 25.5 5.5Z" stroke="#101828" stroke-width="2" stroke-linecap="round" stroke-linejoin="round"/><path id="Vector_2" d="M16 5.5V26.5" stroke="#101828" stroke-width="2" stroke-linecap="round" stroke-linejoin="round"/><path id="Vector_3" d="M16 10H26.5" stroke="#101828" stroke-width="2" stroke-linecap="round" stroke-linejoin="round"/><path id="Vector_4" d="M16 14H26.5" stroke="#101828" stroke-width="2" stroke-linecap="round" stroke-linejoin="round"/><path id="Vector_5" d="M16 18H26.5" stroke="#101828" stroke-width="2" stroke-linecap="round" stroke-linejoin="round"/><path id="Vector_6" d="M16 22H26.5" stroke="#101828" stroke-width="2" stroke-linecap="round" stroke-linejoin="round"/></g></g></g></g><defs><clipPath id="clip0_8_157"><rect width="32" height="32" rx="5" fill="white"/></clipPath></defs></svg>

<svg xmlns="http://www.w3.org/2000/svg" width="32" height="32" fill="none"><path stroke="#101828" stroke-linecap="round" stroke-linejoin="round" stroke-width="2" d="M25.5 5.5h-19a1 1 0 0 0-1 1v19a1 1 0 0 0 1 1h19a1 1 0 0 0 1-1v-19a1 1 0 0 0-1-1Zm-9.5 0v21M16 10h10.5M16 14h10.5M16 18h10.5M16 22h10.5"/></svg>
